X: 30
T: The COQUETTE
%R: hornpipe, reel
B: Jean White "100 Popular Hornpipes, Reels, Jigs and Country Dances", Boston 1880 p.13
F: http://www.loc.gov/resource/sm1880.09124.0#seq-1
Z: 2014 John Chambers <jc:trillian.mit.edu>
M: C|
L: 1/8
K: D
% - - - - - - - - - - - - - - - - - - - - - - - - - - - - -
|:\
d2D2 F>GA2 | A,2(ed) (cB)A2 |\
defd BcdB | BAGF F2E2 |
d2D2 F>GA2 | A,2(ed) (cB)A2 |\
defd BcdB | AGFE D2d2 :|
|:\
(D/F/)A2 A2A3 | (G/B/)B2 B2B3 |\
defd BcdB | BAGF F2E2 |
(D/F/)A2 A2A3 | (G/B/)B2 B2B3 |\
defd BcdB | AGFE D4 H:|
% - - - - - - - - - - - - - - - - - - - - - - - - - - - - -

%%sep 1 1 500
%%sep 1 1 500
